X:135
T:Trip to Nettle Bed. JJo8.135, A
%%VWML:JohnsonVol8-2184-p68-0
F:http://www.vwml.org/record/JohnsonVol8/2184/p68
Z:Transcribed by Simon Furey and Lewis Jones
Z:vmp.Simon Wilson 2013 www.village-music-project.org.uk
Z:Dance added by John Chambers 2017
M:6/8
L:1/8
%Q:3/8=90
K:Eb
(EG)B (eB)G | (cA)F{E}D2C | (B,D)F (DF)A | GBDE2((3B/c/d/) |\
(e/B/)TB2(f/B/)TB2 | (ge)c{B}=A2G |
F=Ac (Ac)e |1 (df)=ATB2((3A/G/F/) :|2 df=AB2 |\
|: f2g (fd)B | (ge)B (fd)B | {a}T(g>f)g agf |
edc{c}=B3 | (ge)ca3 | (fd)Bg3 | (ag)f (ed)c |\
G2((3F/E/D/)C2((3B/c/d/) | {d}e3(BG)E | (cA)(F{E}D3) |
f2g (ag)a | (cf)e{e}d3 |\
(bg)d (e=B)c | (af)c (d=A)B | (eB)G (cA)F | BGD{D}E3 :|
W: The 1st Cu. half figure down on their own sides
W:and turn .| the same up again and turn :|
W:Cross over two Cu. and lead up to the Top and
W:cast off .| the Man heys with the 3d Cu. and
W:the Wo. heys with the 2d Cu. at the same time
W:and hands Six round :|
W:
T:Milliner's Shop. JJo8.136, The
B:J.Johnson Choice Collection Vol 8 1758
Z:vmp.Simon Wilson 2013 www.village-music-project.org.uk
Z:Dance added by John Chambers 2017
M:6/8
L:1/8
%Q:3/8=100
K:Bb
|:\
B>cB F>DF | B>cB F>DF |\
B>FB d>Bd | f3F3 :|\
|:\
f>gf dbd | cac BgB |
f>gf dbd | Td3c3 |\
f>gf dbd | cac AGF |\
dcB cBA | B3B,3 :|
W: The 1st and 2d Men foot it to
W:their Partners .| then foot it
W:Sideways, the We. do the same at the
W:same time ..| Cross over half
W:figure .| Right and Left ..|
W:foot it contrary Corners but
W:not turn ..| Lead out Sides ..|
W:
